X: 23067
T: Late To Slumber, Early To Rise
R: reel
M: 4/4
K: Dmajor
d2AG FDDA|FDAD FDDA|d2AG FDDA|GBAG FDD2|
d2AG FDDA|FDAD FDD2|d2AG FDDA|GBAG FAdA||
DAAD AADA|DBBD BBDB|DAAD AADA|g2fd BcdB|
DAAD ADD2|DBBD BDD2|DAAD AADA|g2fd Bcdf||

